src/assets/img/eth-network.svg

<svg height="16" viewBox="0 0 12 16" width="12" xmlns="http://www.w3.org/2000/svg"><path d="m17.4990967 13-5.4981934 6.997v.003l-.001-.001-.0008066.001-.0001934-.003-5.49800002-6.997 5.49900002 2.933zm-5.4981934-9v.003l5.4981934 8.1078352-5.4981934 2.8881648v.001l-.001-.001-.0008066.001-.0001934-.001-5.49800002-2.8881648 5.49800002-8.1078352.0001934-.003.0008066.001z" fill="#3a3a3a" transform="translate(-6 -4)"/></svg>

<?xml version="1.0" encoding="UTF-8"?>
<svg width="12px" height="16px" viewBox="0 0 12 16" version="1.1" xmlns="http://www.w3.org/2000/svg" xmlns:xlink="http://www.w3.org/1999/xlink">
    <!-- Generator: Sketch 63.1 (92452) - https://sketch.com -->
    <title>Combined Shape</title>
    <desc>Created with Sketch.</desc>
    <g id="UI" stroke="none" stroke-width="1" fill="none" fill-rule="evenodd">
        <g id="GnosisProtocol---v2.3---1_Order" transform="translate(-609.000000, -261.000000)" fill="#3A3A3A" fill-rule="nonzero">
            <g id="Group-22" transform="translate(532.000000, 252.000000)">
                <g id="Group-18" transform="translate(62.000000, 0.000000)">
                    <g id="Group-19">
                        <g id="Group-4" transform="translate(9.000000, 5.000000)">
                            <path d="M17.4990967,13 L12.0009033,19.997 L12.0009033,20 L11.9999033,19.999 L11.9990967,20 L11.9989033,19.997 L6.50090328,13 L11.9999033,15.933 L17.4990967,13 Z M12.0009033,4 L12.0009033,4.003 L17.4990967,12.1108352 L12.0009033,14.999 L12.0009033,15 L11.9999033,14.999 L11.9990967,15 L11.9989033,14.999 L6.50090328,12.1108352 L11.9989033,4.003 L11.9990967,4 L11.9999033,4.001 L12.0009033,4 Z" id="Combined-Shape"></path>
                        </g>
                    </g>
                </g>
            </g>
        </g>
    </g>
</svg>
